svgs/sharp-regular/keyboard-down.svg

<svg xmlns="http://www.w3.org/2000/svg" viewBox="0 0 576 512"><!--! Font Awesome Pro 6.6.0 by @fontawesome - https://fontawesome.com License - https://fontawesome.com/license (Commercial License) Copyright 2024 Fonticons, Inc. --><path d="M48 48l0 208 480 0 0-208L48 48zM0 0L48 0 528 0l48 0 0 48 0 208 0 48-48 0L48 304 0 304l0-48L0 48 0 0zM209 359l79 79 79-79 17-17L417.9 376l-17 17-96 96-17 17-17-17-96-96-17-17L192 342.1l17 17zM160 176l256 0 0 48-256 0 0-48zm-8-88l0 48-48 0 0-48 48 0zm32 0l48 0 0 48-48 0 0-48zm128 0l0 48-48 0 0-48 48 0zm32 0l48 0 0 48-48 0 0-48zm128 0l0 48-48 0 0-48 48 0z"/></svg>

<svg xmlns="http://www.w3.org/2000/svg" viewBox="0 0 576 512"><!--! Font Awesome Pro 6.4.0 by @fontawesome - https://fontawesome.com License - https://fontawesome.com/license (Commercial License) Copyright 2023 Fonticons, Inc. --><path d="M48 48V256H528V48H48zM0 0H48 528h48V48 256v48H528 48 0V256 48 0zM209 359l79 79 79-79 17-17L417.9 376l-17 17-96 96-17 17-17-17-96-96-17-17L192 342.1l17 17zM160 176H416v48H160V176zm-8-88v48H104V88h48zm32 0h48v48H184V88zm128 0v48H264V88h48zm32 0h48v48H344V88zm128 0v48H424V88h48z"/></svg>
